public/assets/routes_avatar/beginningNotTaxSalesEstate.svg

<?xml version="1.0" encoding="UTF-8"?>
<svg width="60px" height="60px" viewBox="0 0 60 60" version="1.1" xmlns="http://www.w3.org/2000/svg" xmlns:xlink="http://www.w3.org/1999/xlink">
    <!-- Generator: Sketch 49.3 (51167) - http://www.bohemiancoding.com/sketch -->
    <title>销项管理-期初未纳税销售额台账-地产</title>
    <desc>Created with Sketch.</desc>
    <defs>
        <rect id="path-1" x="0" y="0" width="25" height="27" rx="2"></rect>
        <path d="M22,22.8666667 L22,19.8 C22,19.3581722 22.3581722,19 22.8,19 L23.2,19 C23.6418278,19 24,19.3581722 24,19.8 L24,22.8666667 C24,23.3084945 23.6418278,23.6666667 23.2,23.6666667 L22.8,23.6666667 C22.3581722,23.6666667 22,23.3084945 22,22.8666667 Z M22,25.2222222 C22,25.651777 22.4477153,26 23,26 C23.5522847,26 24,25.651777 24,25.2222222 C24,24.7926674 23.5522847,24.4444444 23,24.4444444 C22.4477153,24.4444444 22,24.7926674 22,25.2222222 Z" id="path-2"></path>
    </defs>
    <g id="icon" stroke="none" stroke-width="1" fill="none" fill-rule="evenodd">
        <g id="销项管理-期初未纳税销售额台账-地产">
            <circle id="Oval-Copy" fill="#05DCAC" cx="30" cy="30" r="30"></circle>
            <g id="Group-40" transform="translate(15.000000, 15.000000)">
                <g id="Rectangle-4">
                    <use fill="#05DCAC" fill-rule="evenodd" xlink:href="#path-1"></use>
                    <rect stroke="#FFFFFF" stroke-width="1.5" x="0.75" y="0.75" width="23.5" height="25.5" rx="2"></rect>
                </g>
                <rect id="Rectangle-3" fill="#FFFFFF" x="5" y="5" width="15" height="1.5" rx="0.75"></rect>
                <rect id="Rectangle-3-Copy" fill="#FFFFFF" x="5" y="10" width="15" height="1.5" rx="0.75"></rect>
                <rect id="Rectangle-3-Copy-2" fill="#FFFFFF" x="5" y="15" width="10" height="1.5" rx="0.75"></rect>
                <circle id="Oval-2" fill="#05DCAC" cx="22.5" cy="22.5" r="7.5"></circle>
                <g id="Shape" fill-rule="nonzero">
                    <use fill="#FFFFFF" fill-rule="evenodd" xlink:href="#path-2"></use>
                    <path stroke="#05DCAC" stroke-width="0.2" d="M22.1,22.8666667 C22.1,23.253266 22.4134007,23.5666667 22.8,23.5666667 L23.2,23.5666667 C23.5865993,23.5666667 23.9,23.253266 23.9,22.8666667 L23.9,19.8 C23.9,19.4134007 23.5865993,19.1 23.2,19.1 L22.8,19.1 C22.4134007,19.1 22.1,19.4134007 22.1,19.8 L22.1,22.8666667 Z M22.1,25.2222222 C22.1,25.5902696 22.4982249,25.9 23,25.9 C23.5017751,25.9 23.9,25.5902696 23.9,25.2222222 C23.9,24.8541749 23.5017751,24.5444444 23,24.5444444 C22.4982249,24.5444444 22.1,24.8541749 22.1,25.2222222 Z"></path>
                </g>
                <path d="M22.6923077,29.3846154 C18.9962482,29.3846154 16,26.3883672 16,22.6923077 C16,18.9962482 18.9962482,16 22.6923077,16 C26.3883672,16 29.3846154,18.9962482 29.3846154,22.6923077 C29.3846154,26.3883672 26.3883672,29.3846154 22.6923077,29.3846154 Z M22.6923077,28 C25.6236652,28 28,25.6236652 28,22.6923077 C28,19.7609502 25.6236652,17.3846154 22.6923077,17.3846154 C19.7609502,17.3846154 17.3846154,19.7609502 17.3846154,22.6923077 C17.3846154,25.6236652 19.7609502,28 22.6923077,28 Z" id="Oval-3" fill="#FFFFFF" fill-rule="nonzero"></path>
            </g>
        </g>
    </g>
</svg>

<svg width="60" height="60" xmlns="http://www.w3.org/2000/svg" xmlns:xlink="http://www.w3.org/1999/xlink"><defs><rect id="a" x="0" y="0" width="25" height="27" rx="2"/><path d="M22 22.867V19.8a.8.8 0 0 1 .8-.8h.4a.8.8 0 0 1 .8.8v3.067a.8.8 0 0 1-.8.8h-.4a.8.8 0 0 1-.8-.8zm0 2.355c0 .43.448.778 1 .778s1-.348 1-.778c0-.43-.448-.778-1-.778s-1 .349-1 .778z" id="b"/></defs><g fill="none" fill-rule="evenodd"><circle fill="#05DCAC" cx="30" cy="30" r="30"/><g transform="translate(15 15)"><use fill="#05DCAC" xlink:href="#a"/><rect stroke="#FFF" stroke-width="1.5" x=".75" y=".75" width="23.5" height="25.5" rx="2"/><rect fill="#FFF" x="5" y="5" width="15" height="1.5" rx=".75"/><rect fill="#FFF" x="5" y="10" width="15" height="1.5" rx=".75"/><rect fill="#FFF" x="5" y="15" width="10" height="1.5" rx=".75"/><circle fill="#05DCAC" cx="22.5" cy="22.5" r="7.5"/><g fill-rule="nonzero"><use fill="#FFF" fill-rule="evenodd" xlink:href="#b"/><path stroke="#05DCAC" stroke-width=".2" d="M22.1 22.867a.7.7 0 0 0 .7.7h.4a.7.7 0 0 0 .7-.7V19.8a.7.7 0 0 0-.7-.7h-.4a.7.7 0 0 0-.7.7v3.067zm0 2.355c0 .368.398.678.9.678s.9-.31.9-.678c0-.368-.398-.678-.9-.678s-.9.31-.9.678z"/></g><path d="M22.692 29.385a6.692 6.692 0 1 1 0-13.385 6.692 6.692 0 0 1 0 13.385zm0-1.385a5.308 5.308 0 1 0 0-10.615 5.308 5.308 0 0 0 0 10.615z" fill="#FFF" fill-rule="nonzero"/></g></g></svg>
